img/logos/myth.svg

<?xml version="1.0" encoding="UTF-8" standalone="no"?>
<svg width="256px" height="113px" viewBox="0 0 256 113" version="1.1" xmlns="http://www.w3.org/2000/svg" xmlns:xlink="http://www.w3.org/1999/xlink" preserveAspectRatio="xMinYMin meet">
    <g>
        <path d="M99.5862069,1.65521495 L81.9310345,1.65521495 L45.7931034,63.5878408 L31.5862069,1.65521495 L14.6206897,1.65521495 L0,84.4159623 L14.0689655,84.4159623 L23.0344828,33.7939718 C23.3103448,31.8628877 24.2758621,25.5178971 24.2758621,25.5178971 C24.2758621,25.5178971 25.1034483,31.7249531 25.5172414,33.7939718 L36.9655172,84.4159623 L47.5862069,84.4159623 L76.9655172,33.7939718 C78.0689655,31.8628877 80.5517241,26.6213737 80.9655172,25.7937662 C80.6896552,26.7593083 79.5862069,32.2766914 79.3103448,33.7939718 L70.3448276,84.4159623 L84.9655172,84.4159623 L99.5862069,1.65521495 L99.5862069,1.65521495 Z M157.241379,37.3802709 L142.206897,37.3802709 L138.482759,57.9325231 C136.413793,69.5190277 130.206897,73.9329343 125.37931,73.9329343 C121.517241,73.9329343 119.862069,71.5880464 119.862069,67.8638128 C119.862069,60.1394764 124.827586,52.5530745 124.827586,45.6563456 C124.827586,39.1734204 120.137931,36.1388597 114.758621,36.1388597 C110.62069,36.1388597 106.068966,37.3802709 103.448276,39.0354858 L103.448276,44.8287381 C104.413793,44.552869 105.655172,44.1390652 107.034483,44.1390652 C108.551724,44.1390652 109.655172,45.1046073 109.655172,47.0356914 C109.655172,52.6910091 104.413793,63.86371 104.413793,71.725981 C104.413793,79.8641212 109.517241,85.795308 118.482759,85.795308 C124.551724,85.795308 131.310345,81.9331398 135.310345,76.1398875 L133.517241,86.3470464 C131.586207,97.5197472 126.206897,101.243981 119.034483,101.243981 C112.827586,101.243981 108.689655,99.8646351 102.758621,96.0024669 L101.655172,107.175168 C106.62069,110.071794 113.241379,112.278747 119.448276,112.278747 C133.37931,112.278747 144.965517,106.485495 148.689655,85.3815043 L157.241379,37.3802709 L157.241379,37.3802709 Z M198.206897,37.3802709 L187.448276,37.3802709 L190.206897,21.3798597 L174.896552,23.0350747 L172.413793,37.3802709 L165.655172,37.3802709 L164,46.7598222 L170.758621,46.7598222 L167.034483,67.7258782 C164.965517,79.4503174 170.758621,85.3815043 180.413793,85.3815043 C186.344828,85.3815043 190.758621,83.5883548 193.517241,81.5193361 L192.413793,74.2088034 C190.758621,75.31228 188.965517,76.0019529 186.62069,76.0019529 C182.482759,76.0019529 181.37931,72.6915231 182.344828,66.7603362 L185.793103,46.7598222 L196.551724,46.7598222 L198.206897,37.3802709 L198.206897,37.3802709 Z M256,82.6228127 L256,76.5536913 C255.172414,76.8295604 253.931034,77.3812987 252.551724,77.3812987 C251.034483,77.3812987 249.793103,76.2778221 249.793103,74.4846726 C249.793103,68.8293548 254.344828,57.656654 254.344828,49.794383 C254.344828,41.6562428 249.241379,35.8629905 240.275862,35.8629905 C234.206897,35.8629905 227.448276,39.5872241 223.448276,45.518411 L231.310345,0 L216,1.65521495 L201.37931,84.4159623 L216.413793,84.4159623 L220.137931,63.7257754 C222.206897,52.1392708 228.551724,47.7253643 233.241379,47.7253643 C237.103448,47.7253643 238.896552,50.0702521 238.896552,53.7944857 C238.896552,61.5188222 234.62069,69.105224 234.62069,76.0019529 C234.62069,82.4848781 239.448276,85.3815043 244.965517,85.3815043 C249.793103,85.3815043 253.517241,84.0021585 256,82.6228127 L256,82.6228127 Z" fill="#000000"></path>
    </g>
</svg>

<svg width="256" height="113" viewBox="0 0 256 113" xmlns="http://www.w3.org/2000/svg" preserveAspectRatio="xMinYMin meet"><path d="M99.586 1.655H81.93L45.794 63.588 31.586 1.655H14.62L0 84.415h14.07l8.964-50.62c.276-1.932 1.242-8.277 1.242-8.277s.827 6.207 1.24 8.276l11.45 50.622h10.62l29.38-50.622c1.103-1.93 3.586-7.173 4-8-.276.965-1.38 6.483-1.656 8l-8.965 50.622h14.62l14.62-82.76zM157.24 37.38h-15.033l-3.724 20.553c-2.07 11.586-8.276 16-13.104 16-3.863 0-5.518-2.345-5.518-6.07 0-7.724 4.966-15.31 4.966-22.207 0-6.483-4.69-9.517-10.07-9.517-4.137 0-8.69 1.24-11.31 2.895v5.794c.966-.277 2.207-.69 3.586-.69 1.518 0 2.62.965 2.62 2.896 0 5.655-5.24 16.828-5.24 24.69 0 8.138 5.103 14.07 14.07 14.07 6.068 0 12.826-3.863 16.826-9.656l-1.793 10.207c-1.93 11.173-7.31 14.897-14.483 14.897-6.206 0-10.344-1.38-16.275-5.242l-1.105 11.173c4.966 2.897 11.586 5.104 17.793 5.104 13.93 0 25.518-5.795 29.242-26.898l8.55-48.002zm40.967 0h-10.76l2.76-16-15.31 1.655-2.483 14.345h-6.76L164 46.76h6.76l-3.726 20.966c-2.068 11.724 3.725 17.656 13.38 17.656 5.93 0 10.345-1.794 13.103-3.863l-1.103-7.31C190.76 75.31 188.966 76 186.62 76c-4.137 0-5.24-3.31-4.275-9.242l3.448-20h10.76l1.654-9.38zM256 82.623v-6.07c-.828.277-2.07.828-3.448.828-1.518 0-2.76-1.102-2.76-2.895 0-5.656 4.553-16.828 4.553-24.69 0-8.14-5.104-13.932-14.07-13.932-6.068 0-12.827 3.724-16.827 9.655L231.31 0 216 1.655l-14.62 82.76h15.034l3.724-20.69c2.07-11.586 8.414-16 13.103-16 3.863 0 5.657 2.345 5.657 6.07 0 7.724-4.276 15.31-4.276 22.207 0 6.483 4.828 9.38 10.346 9.38 4.827 0 8.55-1.38 11.034-2.76z"/></svg>
